X: 38531
T: Stephan's
R: jig
M: 6/8
K: Aminor
B|c2A ABG|A2B c2e|dcA AGA|age d2 e|
c2A ABG|ABA cde|dcA AGA|age d2:|
g|egg egg|egg aeg|aef edc|Age d2g|
egg egg|egg aeg|aef edc|Age d2:|

